X: 68
T: Credo [Village]
N: Derived from Ock1014-Credo_Village.krn
C: Johannes Ockeghem
%%abc-version 2.0
%%abcx-abcm2ps-target-version 5.9.1 (29 Sep 2008)
%%abc-creator hum2abc beta
%%abcx-conversion-date 2019/02/17 07:26:15
%%abc-edited-by Jesse Rodin
%%abc-edited-by Jesse Rodin 8-16-2012
%%abcx-initial-encoding-date 2012/08/16/
%%humdrum-veritas 1499446927
%%humdrum-veritas-data 478169618
%%linebreak <none>
%%barnumbers 0
L: 1/4
M: 3/1
Q: 1/2=120
%%staves [1 2 3 4]
V: 1 clef=treble
V: 2 clef=treble
V: 3 clef=treble-8
V: 4 clef=bass
K: F
[V:1] z12 | 
[V:2] D4F2G2A2B2- | 
[V:3] d12 | 
[V:4] D,6E,2F,2G,2- | 
[V:1] z12 | 
[V:2] BGG4c4B2- | 
[V:3] _e12 | 
[V:4] G,2C,2C,4z2G,2- | 
[V:1] z12 | 
[V:2] BAA4G2F2B2- | 
[V:3] d12 | 
[V:4] G,2F,2G,4D,4 | 
[V:1] z12 | 
[V:2] B2A3GG4^F2 | 
[V:3] d8c4 | 
[V:4] G,2F,2G,4A,4 | 
[V:1] z12 | 
[V:2] G6E2E4 | 
[V:3] B4c8 | 
[V:4] G,2E,4C,2C,4 | 
[V:1] z4A2B2c4 | 
[V:2] F6E2E2A2- | 
[V:3] c8A2F2- | 
[V:4] F,6G,2A,4 | 
[V:1] c4c4B2c2 | 
[V:2] A2G2E2F2G4- | 
[V:3] F2G2A4G4 | 
[V:4] z12 | 
[V:1] d4c2c4=B2 | 
[V:2] G2F4E2D4 | 
[V:3] z2B3Ac2G4 | 
[V:4] z12 | 
[V:1] c4z4z4 | 
[V:2] C4E2F2G2G2 | 
[V:3] z2c4A2B3A | 
[V:4] A,8G,4 | 
[V:1] z12 | 
[V:2] A4G2F2E4 | 
[V:3] F2c4d4^c2 | 
[V:4] z2F,2E,2D,2A,4 | 
[V:1] d4c2d4e2 | 
[V:2] D4A4B4 | 
[V:3] d3ef4d2g2 | 
[V:4] B,4A,2F,2G,4 | 
[V:1] f4d4_e2d2- | 
[V:2] A4F2G2A4 | 
[V:3] f2d4B2c2d2 | 
[V:4] D,6G,2z2F,2 | 
[V:1] d2B2A4z4 | 
[V:2] G2G4^F2G4 | 
[V:3] B2G2A4G4 | 
[V:4] G,4D,4G,4 | 
[V:1] z12 | 
[V:2] z12 | 
[V:3] A2B2c4d4 | 
[V:4] F,2G,2E,2F,4G,2 | 
[V:1] z12 | 
[V:2] z4C3DE4 | 
[V:3] c2B2A4B4 | 
[V:4] A,2G,4F,2G,4 | 
[V:1] z4G3AB4 | 
[V:2] D4z2G2F3G | 
[V:3] A2B2c4d4 | 
[V:4] F,2D,2E,4D,4 | 
[V:1] A2d4c2d4 | 
[V:2] A2B2G4A4 | 
[V:3] d4_e4d2d2 | 
[V:4] z12 | 
[V:1] B2c2d2c4=B2 | 
[V:2] F2G4E2F2D2 | 
[V:3] d2c2B2c2d4 | 
[V:4] z12 | 
[V:1] c4z4z4 | 
[V:2] E2G3FD2E4 | 
[V:3] c4B4c4 | 
[V:4] C,4G,4C,4 | 
[V:1] A2B2c4B4 | 
[V:2] F2G2E2F4D2 | 
[V:3] z2G2A3B/c/d2B2 | 
[V:4] z12 | 
[V:1] c4d4d4 | 
[V:2] E4D2F4ED | 
[V:3] A8B4 | 
[V:4] z4D,4B,,4 | 
[V:1] _e4d4d4 | 
[V:2] C4D4z2D2- | 
[V:3] G4B6A2 | 
[V:4] C,4z2G,4F,2 | 
[V:1] B2c2d6c2- | 
[V:2] D2E2F4G2E2 | 
[V:3] B2G2F2B4A2 | 
[V:4] G,2E,2D,2B,,4C,2 | 
[V:1] c2=B2c4e4 | 
[V:2] D4C4G4 | 
[V:3] B4G4c4 | 
[V:4] G,4C,8 | 
[V:1] d2g4f2e2d2- | 
[V:2] F2G2A4G4 | 
[V:3] z12 | 
[V:4] D,2E,4F,2G,4 | 
[V:1] d2c2B3GB2d2- | 
[V:2] F4G3FD4 | 
[V:3] z4d4B2G2 | 
[V:4] A,4G,4G,4 | 
[V:1] dcA2B2G4^F2 | 
[V:2] z12 | 
[V:3] A4G2d4c2 | 
[V:4] F,4G,4A,4 | 
[V:1] G2A2G2c4d2- | 
[V:2] z4G4A2F2 | 
[V:3] d4z2c2A2B2 | 
[V:4] G,2F,2E,4F,4 | 
[V:1] dcc4=B2c4- | 
[V:2] G3F/E/D4z4 | 
[V:3] c4z2G2c3d | 
[V:4] E,2F,2G,4A,4 | 
[V:1] c4d4z4 | 
[V:2] A4B4A4 | 
[V:3] e4z2d4c2 | 
[V:4] C3B,G,4A,4 | 
[V:1] z2d4c2d2B2 | 
[V:2] F2G2A4G2G2- | 
[V:3] d2B2A4B2c2 | 
[V:4] B,2G,2F,4z4 | 
[V:1] A4B3AF3G | 
[V:2] G2^F2G4z4 | 
[V:3] A4z4A2B2 | 
[V:4] D,4G,4D,2G,2 | 
[V:1] A2B2c2A4F2 | 
[V:2] z12 | 
[V:3] c2d2c4A4 | 
[V:4] F,2D,2z2F,4D,2 | 
[V:1] G2FGA4z4 | 
[V:2] D4F3GE2A2- | 
[V:3] B2B2A2B2c4 | 
[V:4] G,4D,4z4 | 
[V:1] z4G3AB2A2 | 
[V:2] A2F2E4D4 | 
[V:3] A4c4d4 | 
[V:4] z4z4z2D2- | 
[V:1] B2d3ccBd4 | 
[V:2] z4A4F2G2 | 
[V:3] d4_e4d4 | 
[V:4] D2B,2A,4B,2G,2- | 
[V:1] z2d4e2f4 | 
[V:2] A4G4z4 | 
[V:3] d4B2c2d4 | 
[V:4] G,2F,2G,2E,2D,2B,,2 | 
[V:1] e2c2d4G4 | 
[V:2] G2E2F3GE4 | 
[V:3] c4B4c4 | 
[V:4] C,4z4C,4 | 
[V:1] A2B2c4c4 | 
[V:2] z4E2F2G4 | 
[V:3] d4c3de4 | 
[V:4] F,2G,2A,3G,E,4 | 
[V:1] d4c2B2A4 | 
[V:2] F3GA2G4F2 | 
[V:3] z2A4B2c2A2 | 
[V:4] D,2F,4G,2A,2D,2 | 
[V:1] B4A2B2c4 | 
[V:2] G2E2F4E2C2 | 
[V:3] G4z2F2G2A2- | 
[V:4] z2G,2F,2D,2E,2F,2- | 
[V:1] A2B2c4c2c2 | 
[V:2] F4E2F3GA2 | 
[V:3] A2F2G2A3Gc2- | 
[V:4] F,2D,2C,2F,3E,C,2 | 
[V:1] c4B2c2d2e2 | 
[V:2] G2A2G2E2D2G2 | 
[V:3] c2d4c2f2e2 | 
[V:4] E,2F,2G,2A,2B,2C2 | 
[V:1] f2g2c2d4c2- | 
[V:2] A2B2c2F2G3A | 
[V:3] d2G2A2B3Gc2 | 
[V:4] F,2E,2C,2B,,4C,2 | 
[V:1] c2=B2c8 ||  
[V:2] G4G8 ||  
[V:3] d4c8 ||  
[V:4] G,4C,8 ||  
[V:1]  [K:F] [K:clef=treble][M:2/1]z8 | 
[V:2]  [K:F] [K:clef=treble][M:2/1]z8 | 
[V:3]  [K:F] [K:clef=treble-8][M:2/1]z4A2B2 | 
[V:4]  [K:F] [K:clef=bass][M:2/1]D,2E,2F,4 | 
[V:1] z8 | 
[V:2] z8 | 
[V:3] c2c2c2c2 | 
[V:4] F,2F,2F,2F,2- | 
[V:1] z8 | 
[V:2] z8 | 
[V:3] c4c2c2- | 
[V:4] F,2F,2F,4 | 
[V:1] z8 | 
[V:2] z8 | 
[V:3] c2B2A2d2- | 
[V:4] E,2D,2F,2G,2 | 
[V:1] z8 | 
[V:2] z8 | 
[V:3] d2^c2d4 | 
[V:4] E,4D,4 | 
[V:1] z8 | 
[V:2] z8 | 
[V:3] d4_e4 | 
[V:4] z2F,3_E,D,C, | 
[V:1] z8 | 
[V:2] z8 | 
[V:3] d4c4 | 
[V:4] B,,2F,2E,2F,2 | 
[V:1] z8 | 
[V:2] z8 | 
[V:3] B2c2d4 | 
[V:4] G,2E,2D,2F,2- | 
[V:1] z8 | 
[V:2] z8 | 
[V:3] c2c4=B2 | 
[V:4] F,E,D,C,D,4 | 
[V:1] z8 | 
[V:2] z8 | 
[V:3] c4z4 | 
[V:4] C,4z4 | 
[V:1] B8 | 
[V:2] G8- | 
[V:3] d8 | 
[V:4] G,8 | 
[V:1] c8 | 
[V:2] G4A4 | 
[V:3] _e8 | 
[V:4] C8 | 
[V:1] d8 | 
[V:2] B8 | 
[V:3] d8 | 
[V:4] B,4G,4- | 
[V:1] d4e4 | 
[V:2] G8 | 
[V:3] B4c4 | 
[V:4] G,4E,4 | 
[V:1] f8- | 
[V:2] F4A4- | 
[V:3] d8 | 
[V:4] D,4F,4- | 
[V:1] f4e4- | 
[V:2] A4G4 | 
[V:3] c4c4- | 
[V:4] F,2E,2C,4 | 
[V:1] e2c2d4 | 
[V:2] G8 | 
[V:3] c4=B4 | 
[V:4] G,8 | 
[V:1] e4z4 | 
[V:2] G4z4 | 
[V:3] c4c2A2 | 
[V:4] C,4z4 | 
[V:1] z8 | 
[V:2] G4A4 | 
[V:3] B3AF2c2- | 
[V:4] z8 | 
[V:1] z8 | 
[V:2] G2F2E4 | 
[V:3] c2d4c2 | 
[V:4] z8 | 
[V:1] z8 | 
[V:2] F2D2E2F2 | 
[V:3] A2B2c2d2 | 
[V:4] z8 | 
[V:1] z8 | 
[V:2] G4A4 | 
[V:3] cB2A/G/F4 | 
[V:4] z8 | 
[V:1] z8 | 
[V:2] A4B4 | 
[V:3] z2c2d2e2 | 
[V:4] z8 | 
[V:1] z8 | 
[V:2] A4F2G2 | 
[V:3] f2d4e2 | 
[V:4] z8 | 
[V:1] z8 | 
[V:2] A4G4 | 
[V:3] c2d3cB2 | 
[V:4] z8 | 
[V:1] z8 | 
[V:2] F4G4 | 
[V:3] A4G4 | 
[V:4] z8 | 
[V:1] z8 | 
[V:2] A2B4AG | 
[V:3] d4_e4 | 
[V:4] D,4G,2A,2 | 
[V:1] z8 | 
[V:2] F2B2A2G2- | 
[V:3] d4d4 | 
[V:4] B,2G,2F,2G,2- | 
[V:1] z8 | 
[V:2] G2FED2B,2 | 
[V:3] B2c2d4 | 
[V:4] G,2A,2B,2G,2 | 
[V:1] z8 | 
[V:2] C4D4 | 
[V:3] c2c4=B2 | 
[V:4] A,4G,4 | 
[V:1] z8 ||  
[V:2] C8 ||  
[V:3] c8 ||  
[V:4] C,8 ||  
[V:1]  [K:F] [K:clef=treble][M:2/1]z8 | 
[V:2]  [K:F] [K:clef=treble][M:2/1]G8 | 
[V:3]  [K:F] [K:clef=treble-8][M:2/1]c8 | 
[V:4]  [K:F] [K:clef=bass][M:2/1]z8 | 
[V:1] z8 | 
[V:2] G8 | 
[V:3] B4c4 | 
[V:4] z8 | 
[V:1] z8 | 
[V:2] A8 | 
[V:3] F4c4- | 
[V:4] z8 | 
[V:1] z8 | 
[V:2] G8 | 
[V:3] c4B4 | 
[V:4] z8 | 
[V:1] z8 | 
[V:2] E8 | 
[V:3] G4c4- | 
[V:4] z8 | 
[V:1] z8 | 
[V:2] F8 | 
[V:3] c2A2B4 | 
[V:4] z8 | 
[V:1] z8 | 
[V:2] E4F4 | 
[V:3] c4A4 | 
[V:4] z8 | 
[V:1] z8 | 
[V:2] G8 | 
[V:3] B6A2 | 
[V:4] z8 | 
[V:1] c6d2 | 
[V:2] A8 | 
[V:3] F8 | 
[V:4] z8 | 
[V:1] e4f4- | 
[V:2] A8 | 
[V:3] z8 | 
[V:4] z8 | 
[V:1] f4d4 | 
[V:2] B8 | 
[V:3] z8 | 
[V:4] z8 | 
[V:1] c2f2e2c2- | 
[V:2] A8 | 
[V:3] z8 | 
[V:4] z8 | 
[V:1] c2d4cB | 
[V:2] F4G4 | 
[V:3] z8 | 
[V:4] z8 | 
[V:1] c3BAGF2 | 
[V:2] A8 | 
[V:3] z8 | 
[V:4] z8 | 
[V:1] G2B3cd2- | 
[V:2] G8 | 
[V:3] z8 | 
[V:4] z8 | 
[V:1] d2cBA4 | 
[V:2] F8 | 
[V:3] z8 | 
[V:4] z8 | 
[V:1] G4A2B2 | 
[V:2] G4E2F2 | 
[V:3] z4c2d2 | 
[V:4] z8 | 
[V:1] c4B2A2 | 
[V:2] G4F2E2 | 
[V:3] e4d2c2 | 
[V:4] z8 | 
[V:1] c4d4 | 
[V:2] G4A4 | 
[V:3] e4d4 | 
[V:4] z8 | 
[V:1] d4_e4 | 
[V:2] A4B4 | 
[V:3] f4g4 | 
[V:4] z8 | 
[V:1] d2d2d4 | 
[V:2] A2A2A4 | 
[V:3] f2f2f4 | 
[V:4] z8 | 
[V:1] B2c2d4 | 
[V:2] F2G2A4 | 
[V:3] d2c2f4 | 
[V:4] z8 | 
[V:1] c2c4=B2 | 
[V:2] G2G4F2 | 
[V:3] e2c2d4 | 
[V:4] z8 | 
[V:1] c8- | 
[V:2] G8 | 
[V:3] c8- | 
[V:4] C,8 | 
[V:1] c4A4 | 
[V:2] z8 | 
[V:3] c8 | 
[V:4] E,4F,4 | 
[V:1] B6G2 | 
[V:2] G8 | 
[V:3] z8 | 
[V:4] G,8 | 
[V:1] B4d4- | 
[V:2] G6FE | 
[V:3] d8 | 
[V:4] G,4G,4 | 
[V:1] d4_e4 | 
[V:2] D4G4- | 
[V:3] B8 | 
[V:4] G,4G,4 | 
[V:1] d4B4 | 
[V:2] G4G4 | 
[V:3] G4d4 | 
[V:4] G,8 | 
[V:1] c8 | 
[V:2] E4F4 | 
[V:3] c2c4Bc | 
[V:4] A,8 | 
[V:1] B4A4 | 
[V:2] G4D4 | 
[V:3] d8 | 
[V:4] G,4F,4 | 
[V:1] z4G4 | 
[V:2] E8 | 
[V:3] c4B4 | 
[V:4] E,8 | 
[V:1] A4c4- | 
[V:2] C8 | 
[V:3] A8 | 
[V:4] F,8 | 
[V:1] c4A4 | 
[V:2] G4A4 | 
[V:3] G4d4- | 
[V:4] E,4F,4 | 
[V:1] B2c2d4 | 
[V:2] G2F2D4 | 
[V:3] d4B4 | 
[V:4] G,8 | 
[V:1] c2A2A4- | 
[V:2] z4F4- | 
[V:3] c8- | 
[V:4] A,8 | 
[V:1] A4F4 | 
[V:2] F2E2C4 | 
[V:3] c4A4 | 
[V:4] A,8 | 
[V:1] G6F2 | 
[V:2] D4E4- | 
[V:3] G8 | 
[V:4] B,8 | 
[V:1] A8 | 
[V:2] E4F4 | 
[V:3] z4F4 | 
[V:4] A,8 | 
[V:1] z4B4 | 
[V:2] D4G4 | 
[V:3] A4G4 | 
[V:4] F,4G,4 | 
[V:1] A4c4 | 
[V:2] F2F4E2 | 
[V:3] c8 | 
[V:4] A,8 | 
[V:1] B4G4- | 
[V:2] G8- | 
[V:3] d8 | 
[V:4] G,4G,4- | 
[V:1] G4c4- | 
[V:2] G4A4 | 
[V:3] e4f4 | 
[V:4] G,4F,4 | 
[V:1] c2=B2=B2A2 | 
[V:2] G8 | 
[V:3] d8 | 
[V:4] G,8 | 
[V:1] c6d2 | 
[V:2] E4F4 | 
[V:3] c4A4 | 
[V:4] C,4z4 | 
[V:1] e4d4 | 
[V:2] G8 | 
[V:3] G8 | 
[V:4] C,4G,4 | 
[V:1] e2g4f2 | 
[V:2] G8 | 
[V:3] c4B4 | 
[V:4] C,4z4 | 
[V:1] e3dd4 | 
[V:2] G8 | 
[V:3] c4B2G2 | 
[V:4] C,4G,4 | 
[V:1] d4B4 | 
[V:2] F4G4 | 
[V:3] A4G4 | 
[V:4] D,4G,4 | 
[V:1] A4c4 | 
[V:2] A8 | 
[V:3] c4A4 | 
[V:4] F,8 | 
[V:1] B4G4 | 
[V:2] G4G4- | 
[V:3] d4B4 | 
[V:4] G,8 | 
[V:1] A8 | 
[V:2] G4^F4 | 
[V:3] A8 | 
[V:4] D,8 | 
[V:1] B4G4 | 
[V:2] G8 | 
[V:3] G4z4 | 
[V:4] z2G,4E,2 | 
[V:1] z8 | 
[V:2] F4E3F | 
[V:3] A2B2c2c2 | 
[V:4] F,2G,2A,4 | 
[V:1] z8 | 
[V:2] G2A4G2 | 
[V:3] c4c4 | 
[V:4] G,2F,2E,4 | 
[V:1] z8 | 
[V:2] F2D2E4 | 
[V:3] d4c2B2 | 
[V:4] D,4z2G,2- | 
[V:1] z8 | 
[V:2] D4C4 | 
[V:3] A4G4 | 
[V:4] G,2F,2E,2C,2 | 
[V:1] A2B2c4 | 
[V:2] F4G4 | 
[V:3] d4_e4 | 
[V:4] D,4C,4 | 
[V:1] d2f2e2f2- | 
[V:2] A4B2A2 | 
[V:3] d4B2c2 | 
[V:4] z2F,2G,2A,2 | 
[V:1] f2d2e2d2- | 
[V:2] F2G4F2- | 
[V:3] d4c2A2 | 
[V:4] B,4A,2F,2 | 
[V:1] d2B2A4 | 
[V:2] F2E2F4 | 
[V:3] B4c4 | 
[V:4] G,4F,4 | 
[V:1] G2F2D4 | 
[V:2] E2F2G4 | 
[V:3] B2c2d2G2- | 
[V:4] G,2A,2B,4- | 
[V:1] z8 | 
[V:2] G4G2G2 | 
[V:3] G2d4c2 | 
[V:4] B,2G,2B,2C2 | 
[V:1] z8 | 
[V:2] G4F2G2 | 
[V:3] B2AGA2B2 | 
[V:4] D4D,2G,2- | 
[V:1] z8 | 
[V:2] A4G2G2- | 
[V:3] c4B2G2 | 
[V:4] G,E,F,2G,2E,2 | 
[V:1] z8 | 
[V:2] G2^F2G4 | 
[V:3] A4G4 | 
[V:4] D,4G,4 | 
[V:1] c3BG2A2- | 
[V:2] z8 | 
[V:3] A2B2c4 | 
[V:4] F,4E,2F,2- | 
[V:1] AGc2B2A2- | 
[V:2] z8 | 
[V:3] c4d4 | 
[V:4] F,E,A,2G,2F,2- | 
[V:1] AGG4^F2 | 
[V:2] z8 | 
[V:3] c2B2A4 | 
[V:4] F,2G,2D,4 | 
[V:1] G4z2G2- | 
[V:2] D8 | 
[V:3] B2G2A2B2 | 
[V:4] G,4F,2G,2 | 
[V:1] G2A4B2 | 
[V:2] E4F3G | 
[V:3] c4d4 | 
[V:4] C,4z4 | 
[V:1] A2d4c2 | 
[V:2] A2B2G4 | 
[V:3] d4_e4 | 
[V:4] z8 | 
[V:1] d6e2 | 
[V:2] A4z4 | 
[V:3] d4B2c2 | 
[V:4] D,6C,2 | 
[V:1] f2g2e2c2 | 
[V:2] B4G2G2- | 
[V:3] d4c2c2- | 
[V:4] B,,4C,2_E,2 | 
[V:1] d3cA2G2- | 
[V:2] GAF2E4- | 
[V:3] cA=B2c4- | 
[V:4] D,4C,4- | 
[V:1] G2c4B2 | 
[V:2] E2F2G4 | 
[V:3] c8- | 
[V:4] C,4E,4 | 
[V:1] A4G4- | 
[V:2] F4D4- | 
[V:3] c4B4 | 
[V:4] F,4G,4 | 
[V:1] G4G4 | 
[V:2] D4D4- | 
[V:3] B4B4 | 
[V:4] G,4G,4- | 
[V:1] G4A4 | 
[V:2] D4D4 | 
[V:3] B4A4 | 
[V:4] G,4F,4 | 
[V:1] G4c4- | 
[V:2] E8 | 
[V:3] B4c4- | 
[V:4] G,4A,4- | 
[V:1] c4B4 | 
[V:2] C4D4 | 
[V:3] c4z4 | 
[V:4] A,4G,4- | 
[V:1] G4A4- | 
[V:2] E4F4- | 
[V:3] B4c4- | 
[V:4] G,4F,4- | 
[V:1] A4G4 | 
[V:2] F2D2D4 | 
[V:3] c2d2B4 | 
[V:4] F,4G,4- | 
[V:1] z2c4d2 | 
[V:2] z4F4 | 
[V:3] z4A2B2 | 
[V:4] G,2E,2F,2D,2 | 
[V:1] e4f4 | 
[V:2] G4A4 | 
[V:3] c4c4 | 
[V:4] C,4F,4 | 
[V:1] e2g4e2 | 
[V:2] G4G4 | 
[V:3] c4c4 | 
[V:4] C,8 | 
[V:1] f2g2e2d2- | 
[V:2] z8 | 
[V:3] d4c2B2 | 
[V:4] B,,4C,2D,2 | 
[V:1] d2c2B2G2 | 
[V:2] z8 | 
[V:3] A4G4 | 
[V:4] F,4G,4 | 
[V:1] A4G4 | 
[V:2] z8 | 
[V:3] d4_e4 | 
[V:4] F,4G,4 | 
[V:1] A2B4c2 | 
[V:2] F4G3E | 
[V:3] d2d2d2c2 | 
[V:4] D,4E,4 | 
[V:1] d2e2f4 | 
[V:2] F2G2A4 | 
[V:3] B2c2d4 | 
[V:4] D,2C,2F,4 | 
[V:1] e4f2g2- | 
[V:2] G4z4 | 
[V:3] c2c4B2 | 
[V:4] C,4D,2E,2- | 
[V:1] g2f2e2d2- | 
[V:2] z4E3F | 
[V:3] c2d2c2B2- | 
[V:4] E,2F,2C,2G,2- | 
[V:1] dcc4=B2 | 
[V:2] G2G2G4 | 
[V:3] Bc_e2d4 | 
[V:4] G,A,C2G,4 | 
[V:1] c4z4 | 
[V:2] G4G4 | 
[V:3] c3BG2E2 | 
[V:4] C,4z4 | 
[V:1] c4B4 | 
[V:2] A4G4 | 
[V:3] F4G4 | 
[V:4] z8 | 
[V:1] G2c3AB2 | 
[V:2] E4F2D2 | 
[V:3] z8 | 
[V:4] z8 | 
[V:1] c2d4B2 | 
[V:2] E2F2G4 | 
[V:3] z8 | 
[V:4] z8 | 
[V:1] c2A4B2 | 
[V:2] A4F2G2 | 
[V:3] z8 | 
[V:4] z8 | 
[V:1] A2c2d2G2 | 
[V:2] A4G2G2- | 
[V:3] z8 | 
[V:4] z8 | 
[V:1] A4G4 | 
[V:2] G2^F2G4- | 
[V:3] z8 | 
[V:4] z8 | 
[V:1] z8 | 
[V:2] G2E2F4 | 
[V:3] c4d4 | 
[V:4] z8 | 
[V:1] z8 | 
[V:2] E4C2F2- | 
[V:3] c4A4 | 
[V:4] z8 | 
[V:1] z8 | 
[V:2] FDE2F2G2- | 
[V:3] B2G2A2B2 | 
[V:4] z8 | 
[V:1] z8 | 
[V:2] G2E2D2F2 | 
[V:3] c4d4 | 
[V:4] z8 | 
[V:1] z8 | 
[V:2] G2A4F2 | 
[V:3] B2c2d4 | 
[V:4] z8 | 
[V:1] z8 | 
[V:2] G2C2D4 | 
[V:3] c2c4=B2 | 
[V:4] z8 | 
[V:1] z8 | 
[V:2] C4z4 | 
[V:3] c8 | 
[V:4] z8 | 
[V:1] A4B4 | 
[V:2] z8 | 
[V:3] d8 | 
[V:4] F,4G,4 | 
[V:1] c8 | 
[V:2] E8 | 
[V:3] c4A4- | 
[V:4] A,8 | 
[V:1] c8 | 
[V:2] F4A4 | 
[V:3] A2B2c4 | 
[V:4] F,8 | 
[V:1] B8 | 
[V:2] G6E2 | 
[V:3] e2d4G2 | 
[V:4] G,8 | 
[V:1] A8 | 
[V:2] F4D4- | 
[V:3] A2F4EF | 
[V:4] D,8 | 
[V:1] G8 | 
[V:2] D2B,2C4 | 
[V:3] G6A2 | 
[V:4] _E,6D,2 | 
[V:1] z8 | 
[V:2] D4E4- | 
[V:3] B4A4 | 
[V:4] B,,4C,4- | 
[V:1] G8 | 
[V:2] E2C2C4 | 
[V:3] G4c4 | 
[V:4] C,4_E,4 | 
[V:1] d8 | 
[V:2] F8 | 
[V:3] B2B4A2 | 
[V:4] D,8 | 
[V:1] _e8- | 
[V:2] G6AB | 
[V:3] c6BA | 
[V:4] C,8 | 
[V:1] e8 | 
[V:2] c6BA | 
[V:3] G4A4 | 
[V:4] C,8 | 
[V:1] d8 | 
[V:2] G8 | 
[V:3] B8 | 
[V:4] z4G,4 | 
[V:1] d8- | 
[V:2] A4G4- | 
[V:3] A4B4- | 
[V:4] F,4G,4- | 
[V:1] d8 | 
[V:2] G4F4 | 
[V:3] B2A2F4 | 
[V:4] G,2F,2D,4 | 
[V:1] z8 | 
[V:2] _E8 | 
[V:3] G4A4 | 
[V:4] _E,4C,4 | 
[V:1] d8 | 
[V:2] D4F4- | 
[V:3] B8 | 
[V:4] B,,4B,4 | 
[V:1] c4B4- | 
[V:2] F4G4- | 
[V:3] c4d4- | 
[V:4] A,4G,4 | 
[V:1] B4c4 | 
[V:2] G4E4 | 
[V:3] d4c4 | 
[V:4] G,4A,4 | 
[V:1] d8 | 
[V:2] F6D2 | 
[V:3] A4B4 | 
[V:4] D,4z4 | 
[V:1] c4A4 | 
[V:2] E4F4 | 
[V:3] A6F2 | 
[V:4] z8 | 
[V:1] B4A2A2- | 
[V:2] D4C4 | 
[V:3] G4A4 | 
[V:4] z8 | 
[V:1] A2F2F4 | 
[V:2] D8 | 
[V:3] A8- | 
[V:4] D,8 | 
[V:1] E8 | 
[V:2] ^C2C4=B,2 | 
[V:3] A8 | 
[V:4] A,,8 | 
[V:1] [M:3/1]D8A4 | 
[V:2] [M:3/1]D8E4 | 
[V:3] [M:3/1]A6B2c4 | 
[V:4] [M:3/1]D,8C,4 | 
[V:1] B8c4 | 
[V:2] F4G8 | 
[V:3] d4_e6d2 | 
[V:4] B,,4_E,8 | 
[V:1] d4_e8 | 
[V:2] F4G8 | 
[V:3] B4c6A2 | 
[V:4] D,4C,8 | 
[V:1] d6cBA4 | 
[V:2] F8D4- | 
[V:3] A8A4 | 
[V:4] D,6E,2F,4 | 
[V:1] G4B4c4 | 
[V:2] D4G8 | 
[V:3] B6A2G4 | 
[V:4] G,6F,2E,4 | 
[V:1] d6c2B4 | 
[V:2] F8G4 | 
[V:3] A4F4B4 | 
[V:4] D,8_E,4 | 
[V:1] A4B8 | 
[V:2] E4F6G2 | 
[V:3] c4d8 | 
[V:4] C,4B,,8 | 
[V:1] A4G4F4 | 
[V:2] F4D8 | 
[V:3] c4B4A4 | 
[V:4] F,4G,4D,4 | 
[V:1] G8A4- | 
[V:2] D4E4F4 | 
[V:3] B8A4- | 
[V:4] G,8D,4 | 
[V:1] A12 | 
[V:2] E4D2F4E2 | 
[V:3] A12 | 
[V:4] C,4D,6C,2 | 
[V:1] A12 |]  
[V:2] E12 |]  
[V:3] A12 |]  
[V:4] A,,12 |]  



